build/logo/MongoOutline.svg

<svg xmlns="http://www.w3.org/2000/svg" fill="none" viewBox="0 0 24 24" focusable="false"><path d="M0 0H24V24H0z"/><path fill="#74767B" fill-rule="evenodd" d="M12.5557 3.8999L6.90039 3.8999C5.24365 3.8999 3.90039 5.24316 3.90039 6.8999L3.90039 17.0999C3.90039 18.7566 5.24365 20.0999 6.90039 20.0999L13.2593 20.0999C13.6182 20.0999 13.9092 19.8088 13.9092 19.4497C13.9092 19.0908 13.6182 18.7998 13.2593 18.7998L6.90039 18.7998C5.96143 18.7998 5.2002 18.0386 5.2002 17.0999L5.2002 12.6086L9.36621 12.6086C9.7251 12.6086 10.0161 12.3176 10.0161 11.9587C10.0161 11.5996 9.7251 11.3088 9.36621 11.3088L5.2002 11.3088L5.2002 6.8999C5.2002 5.96094 5.96143 5.19995 6.90039 5.19995L12.5557 5.19995C12.9146 5.19995 13.2056 4.90894 13.2056 4.5498C13.2056 4.19092 12.9146 3.8999 12.5557 3.8999ZM15.5845 4.27832C15.9536 3.80493 16.8896 3.81543 17.2554 4.29175C17.4136 4.49756 17.584 4.71094 17.7612 4.93311C19.0581 6.55835 20.7271 8.64917 20.7271 11.6716C20.7271 14.9812 18.6333 17.5005 17.1221 18.7278L17.1221 19.8726C17.1221 20.2314 16.8311 20.5225 16.4722 20.5225C16.1133 20.5225 15.8223 20.2314 15.8223 19.8726L15.8223 18.7961C14.3438 17.624 12.2144 15.1057 12.2144 11.6716C12.2144 8.47754 13.8511 6.44092 15.1416 4.83496C15.2954 4.6438 15.4443 4.4585 15.5845 4.27832ZM17.1221 16.9597L17.1221 10.313C17.1221 9.95386 16.8311 9.66284 16.4722 9.66284C16.1133 9.66284 15.8223 9.95386 15.8223 10.313L15.8223 17.0415C14.6899 15.8665 13.5146 13.9985 13.5146 11.6716C13.5146 8.95801 14.8613 7.27197 16.1528 5.65479C16.2397 5.54541 16.3271 5.43628 16.4136 5.32715C16.5283 5.47388 16.6445 5.62061 16.7612 5.76782C18.063 7.41138 19.4268 9.13379 19.4268 11.6716C19.4268 13.9021 18.2695 15.7566 17.1221 16.9597Z"/></svg>

<svg xmlns="http://www.w3.org/2000/svg" fill="none" viewBox="0 0 24 24" focusable="false"><path fill="#74767B" fill-rule="evenodd" d="M12.55 3.89H6.9c-1.66 0-3 1.35-3 3v10.2c0 1.66 1.34 3 3 3h6.35c.36 0 .65-.29.65-.65 0-.35-.29-.65-.65-.65H6.9c-.94 0-1.7-.76-1.7-1.7V12.6h4.16c.36 0 .65-.29.65-.65s-.29-.65-.65-.65H5.2V6.89c0-.93.76-1.7 1.7-1.7h5.65c.36 0 .65-.29.65-.65 0-.35-.29-.65-.65-.65m3.03.38c.37-.47 1.3-.46 1.67.02.16.2.33.42.51.64 1.29 1.62 2.96 3.71 2.96 6.74 0 3.31-2.09 5.83-3.6 7.05v1.15c0 .36-.29.65-.65.65s-.65-.29-.65-.65v-1.08c-1.48-1.17-3.61-3.69-3.61-7.12 0-3.2 1.64-5.23 2.93-6.84.15-.19.3-.38.44-.56m1.54 12.68v-6.64c0-.36-.29-.65-.65-.65s-.65.29-.65.65v6.73c-1.14-1.18-2.31-3.05-2.31-5.37 0-2.72 1.35-4.4 2.64-6.02.08-.11.17-.22.26-.33.11.15.23.3.35.44 1.3 1.65 2.66 3.37 2.66 5.91 0 2.23-1.16 4.08-2.3 5.28"/></svg>
